!!!OTL: Heilige drei Koenige
!!!ARE: Europa, Mitteleuropa, Deutschland
!!!SCT: A0532B
!!!YEM: Copyright 1995, estate of Helmut Schaffrath.
**kern
*ICvox
*Ivox
!! Mixed meters:  4/2; 6/4
*M6/4
*k[b-e-]
*g:
{2g
=1
2g
2dd
2dd
2dd
=2
2cc
2b-
2a
4r}
{4cc
=3
2cc
2cc
2cc
2cc
=4
4b-
4dd
4cc
4b-
2a
4r}
{4a
=5
2dd
4b-
2cc
4b-
=6
2a
2g
4r}
{4cc
=7
*M4/2
2cc
2cc
2cc
2cc
=8
4b-
4dd
4cc
4b-
2a
4r}
{4a
=9
*M6/4
2dd
4b-
2cc
4b-
=10
2a
1g}
==
!!!AGN: Romanze, Ballade, Lied, religioeses Lied
!! Andernacher Gsgb. 1608 S. 142
!!!ONB: ESAC (Essen Associative Code) Database: ALTDEU
!!!AMT: irregular
!!!AIN: vox
!!!EED: Helmut Schaffrath
!!!EEV: 1.0
*-
